X: 1
T: Abbots Bromley Horn Dance
R: jig
M: 6/8
L: 1/8
%Q: 1/8=100
K: Em
e \
| "Em"B2e G2e | "Em"B2e E2G | "Am"FGA "Em"GAB | "B7"AGF "Em"G2e \
| "Em"B2e G2e | "Em"B2e E2G | "Am"FGA "Em"GAB | "B7"AGF "Em"E2 |]
e \
| "Am"c2c cde | "Am"A2A ABc | "D"FGA "Em"GFE | "Bm"DEF B,2g \
| "Em"e2e efg | "Am"c2c cde | "Bm"dcB AGF | "Em"E3- E2 |]
A \
| "Em"BcB "Am"c3 | "Em"BcB "Am"e3 | "Em"BcB "B7"AGF | "Em"E3 "B7"E2A \
| "Em"BcB "Am"c3 | "Em"BcB "Am"e3 | "Em"BcB "B7"AGF | "Em"E3- E2z |]
